X:1
T:Touch and Cleanse Me
T:Touch and Cleanse Me
T:W. K. Wiand
T:Mary F. Marsh, 1878
T:Public Domain Courtesy of the Cyber Hymnal™
T:Public Domain Courtesy of the Cyber Hymnal™
C:W. K. Wiand
Z:Public Domain
Z:Courtesy of the Cyber Hymnal™
%%score ( 1 2 ) ( 3 4 )
L:1/8
Q:1/4=93
M:3/4
K:Eb
V:1 treble 
V:2 treble 
V:3 bass 
V:4 bass 
V:1
 E[EG] | [EB]3 [EB] [Ec][EB] | [EB] [EG]2 z [B,D]E | [DF]3 [FA] [Ac][GB] | [EG]4 E[EG] | %5
w: 1.~Touch and|cleanse me, bless- èd|Sav- ior, I am|wea- ry of my|sin; I am|
w: 2.~Touch and|cleanse me, bless- èd|Sav- ior, Hum- bly|now my guilt I|own; Oh, be-|
 [EB]3 [EB] [Ec][EB] | [EB] [EG]2 z [DF][DB] | [Fd]3 [Ge] [Fd][Ec] | [DB]4 [EB][EB] | %9
w: long- ing for Thy|fa- vor, Long- ing|to be pure with-|in; Touch and|
w: stow Thy par- doning|fa- vor! Thu canst|save me, Thou a-|lone; Thou dost|
 [Ge]3 [GB] [Ac][GB] | [EG] [GB]2 z [GB][GB] | [Fd]3 [Fe] [Fd][Ec] | [DB]4 E[EG] | %13
w: cleanse me, bless- èd|Sav- ior, I am|poor, and weak, and|blind; Grant me|
w: cleanse me, bless- èd|Sav- ior, Light is|stream- ing from a-|bove; Now I|
 [EB]3 [EG] [DF][EG] | [EA] [Ac]2 z [Ac][Ac] | [GB]3 [Ac] [EG][DF] | E4 [GB][GB] | %17
w: now Thy lov- ing|fa- vor, Let me|now sal- va- tion|find! Touch and|
w: feel Thy par- doning|fa- vor, Oh, my|soul is full of|love. Thou dost|
 [Ge]3 [Ge] [Bd][Ac] | [GB] [EG]2 z [GB][GB] | [Fd]3 [Fe] [Fd][Ec] | [DB]4 [EG][FA] | %21
w: cleanse me, touch and|cleanse me, Lis- ten|to my fee- ble|cry; Touch and|
w: cleanse me, Thou dost|cleanse me, Thou hast|heard my fee- ble|cry; Thou dost|
 [GB]3 [EG] [DA][EB] | [Ec] [Ee]2 z [Ee][Ac] | [GB]3 [GB] [Ac][Fd] | [Ge]4 |] %25
w: cleanse me, touch and|cleanse me, Je- sus,|save me, or I|die.|
w: cleanse me, Thou dost|cleanse me, Glo- ry|be to God on|high!|
V:2
 E x | x6 | x5 E | x6 | x4 E x | x6 | x6 | x6 | x6 | x6 | x6 | x6 | x4 E x | x6 | x6 | x6 | E4 x2 | %17
 x6 | x6 | x6 | x6 | x6 | x6 | x6 | x4 |] %25
V:3
 [E,G,][E,G,] | [E,G,]3 [E,G,] [E,A,][E,G,] | [E,G,] [E,B,]2 z [B,,F,][B,,G,] | %3
 [B,,B,]3 [B,,B,] [B,,B,][B,,B,] | [E,B,]4 [E,G,][E,G,] | [E,G,]3 [E,G,] [E,A,][E,G,] | %6
 [E,G,] [E,B,]2 z [B,,B,][B,,B,] | [B,,B,]3 [E,B,] [F,B,][F,=A,] | [B,,B,]4 [E,G,][E,G,] | %9
 [E,B,]3 [E,E] [E,E][E,E] | [E,B,] [E,B,]2 z [E,B,][E,B,] | [F,B,]3 [F,C] [F,B,][F,=A,] | %12
 [B,,B,]4 [E,G,][E,G,] | [E,G,]3 [E,B,] [B,,B,][E,B,] | [A,,C] [A,,C]2 z [A,,C][C,C] | %15
 [E,E]3 [A,,C] [B,,B,][B,,A,] | [E,G,]4 [E,E][E,E] | [E,B,]3 [E,B,] [E,B,][E,E] | %18
 [E,E] [E,B,]2 z [E,B,][E,B,] | [F,B,]3 [F,C] [F,B,][F,=A,] | [B,,B,]4 [E,B,][E,B,] | %21
 [E,E]3 [E,B,] [F,B,][G,B,] | A, [A,C]2 z [A,C][A,E] | [B,E]3 [B,,B,] [B,,B,][B,,B,] | [E,B,]4 |] %25
V:4
 x2 | x6 | x6 | x6 | x6 | x6 | x6 | x6 | x6 | x6 | x6 | x6 | x6 | x6 | x6 | x6 | x6 | x6 | x6 | %19
 x6 | x6 | x6 | A, x5 | x6 | x4 |] %25

